newicons/qudianyun.svg

<?xml version="1.0" encoding="UTF-8"?><svg id="a" xmlns="http://www.w3.org/2000/svg" viewBox="0 0 48 48"><defs><style>.r{fill:#fff;}.s{fill:none;stroke:#fff;stroke-linecap:round;stroke-linejoin:round;}</style></defs><path id="e" class="s" d="M6.73616815,27.23937342c-.39591455-2.99381065-.03635025-7.0566349,1.8698287-10.55326462-2.90335321-2.14924145-2.87659597-6.78975582.17493057-9.52852583,3.34999657-3.00664854,7.6624155-1.674263,8.85750103,1.98476553,1.54193306-.72106171,4.01832199-1.19227505,6.36157036-1.19227505,2.34325027,0,4.81964111.47121334,6.36157227,1.19227505,1.19508743-3.65902853,5.50750542-4.99141407,8.85750008-1.98476505,3.05152893,2.73876953,3.07828522,7.37928486.17493057,9.52852535,1.90617752,3.49662971,2.26574326,7.55945396,1.86982727,10.55326462-1.27172089,9.61646461-7.11824799,15.26137733-17.26383018,15.26137733-10.14558125,0-15.99210739-5.64491272-17.26383066-15.26137733Z"/><g id="f"><path id="g" class="s" d="M27.15986896,32.29993365c-.54120827.93247986-1.78429604,1.53722-3.15986824,1.53722s-2.61865997-.60474014-3.15986824-1.53722"/><path id="h" class="s" d="M15.55067134,33.19701693c.27675247-2.92301941,4.4856205-5.21605492,8.44932938-5.21605492,3.96370697,0,8.1725769,2.29303551,8.44932938,5.21605492.44556808,4.70602798-5.069067,6.9646225-8.44932938,6.9646225s-8.89489746-2.25859451-8.44932938-6.9646225Z"/></g><path id="i" class="s" d="M15.5995853,15.09806369c-3.10241032,0-5.59682465,2.8042202-5.61741066,5.77688599-.02135468,3.08380318,2.17439842,5.75850296,5.27674866,5.73903275,3.47695732-.02182961,3.79428291-3.14072609,8.74107742-3.14072609s5.26412201,3.11890221,8.74107742,3.14072609c3.10234833.01947021,5.29810333-2.65522957,5.27674866-5.73903275-.02059174-2.97266579-2.51499939-5.77688599-5.61740875-5.77688599H15.5995853Z"/><g id="j"><path id="k" class="s" d="M15.97809196,18.62569354v3.29269028"/><path id="l" class="s" d="M17.62433124,20.27203868h-3.29248047"/></g><g id="m"><circle id="n" class="r" cx="31.96389222" cy="21.59126208" r=".74999853"/><circle id="o" class="r" cx="31.96389222" cy="18.93466304" r=".74999853"/><circle id="p" class="r" cx="33.29210735" cy="20.2629616" r=".75"/><circle id="q" class="r" cx="30.63567806" cy="20.2629616" r=".75"/></g></svg>

<?xml version="1.0" encoding="UTF-8" standalone="no"?>
<svg
   viewBox="0 0 48 48"
   version="1.1"
   id="svg1"
   sodipodi:docname="qudianyun.svg"
   inkscape:version="1.2.2 (b0a8486541, 2022-12-01)"
   xml:space="preserve"
   xmlns:inkscape="http://www.inkscape.org/namespaces/inkscape"
   xmlns:sodipodi="http://sodipodi.sourceforge.net/DTD/sodipodi-0.dtd"
   xmlns="http://www.w3.org/2000/svg"
   xmlns:svg="http://www.w3.org/2000/svg"><sodipodi:namedview
     id="namedview1"
     pagecolor="#505050"
     bordercolor="#eeeeee"
     borderopacity="1"
     inkscape:showpageshadow="0"
     inkscape:pageopacity="0"
     inkscape:pagecheckerboard="0"
     inkscape:deskcolor="#505050"
     inkscape:zoom="12.59534"
     inkscape:cx="-1.4291"
     inkscape:cy="28.343817"
     inkscape:window-width="1918"
     inkscape:window-height="1053"
     inkscape:window-x="0"
     inkscape:window-y="0"
     inkscape:window-maximized="1"
     inkscape:current-layer="svg1"
     showgrid="false" /><defs
     id="defs1"><style
       id="style1">.a { fill:none;stroke:#fff;stroke-linecap:round;stroke-linejoin:round; }
</style></defs><g
     id="g1712"><path
       style="fill:none;stroke:#ffffff;stroke-width:1stroke-linecap:round;stroke-linejoin:round;stroke-opacity:1;stop-color:#000000"
       d="M 6.7361673,27.238623 C 6.3402528,24.244812 6.6998171,20.181987 8.6059957,16.685358 5.7026431,14.536117 5.7294,9.8956021 8.780927,7.1568323 12.130923,4.1501836 16.443342,5.482569 17.638428,9.1415975 19.18036,8.4205362 21.65675,7.9493229 23.999999,7.9493229 c 2.34325,0 4.819641,0.4712133 6.361572,1.1922746 1.195087,-3.6590285 5.507505,-4.9914139 8.857502,-1.9847652 3.051527,2.7387698 3.078284,7.3792847 0.174931,9.5285257 1.906176,3.496629 2.265743,7.559454 1.869829,10.553265 C 39.992109,36.855086 34.145582,42.5 23.999999,42.5 13.854417,42.5 8.0078906,36.855086 6.7361673,27.238623 Z"
       id="path1662" /><g
       id="g1696"><path
         style="fill:none;stroke:#ffffff;stroke-width:1stroke-linecap:round;stroke-linejoin:round;stroke-opacity:1;stop-color:#000000"
         d="M 27.159869,32.299182 A 3.4370713,2.5343334 0 0 1 24,33.836401 3.4370713,2.5343334 0 0 1 20.840132,32.299182"
         id="path1654" /><path
         style="fill:none;stroke:#ffffff;stroke-width:1stroke-linecap:round;stroke-linejoin:round;stroke-opacity:1;stop-color:#000000"
         d="M 15.550671,33.196265 C 15.827423,30.273246 20.036291,27.980211 24,27.980211 c 3.963708,0 8.172576,2.293035 8.449328,5.216054 0.445568,4.706027 -5.069067,6.964623 -8.449328,6.964623 -3.380262,0 -8.894897,-2.258596 -8.449329,-6.964623 z"
         id="path1306" /></g><g
       id="g1692"><path
         style="fill:none;stroke:#ffffff;stroke-width:1stroke-linecap:round;stroke-linejoin:round;stroke-opacity:1;stop-color:#000000"
         d="m 15.599585,15.097313 c -3.10241,0 -5.596825,2.804221 -5.6174105,5.776886 -0.021355,3.083803 2.1743985,5.758504 5.2767485,5.739033 3.476958,-0.02183 3.794283,-3.140726 8.741077,-3.140726 4.946794,0 5.264121,3.118902 8.741078,3.140726 3.10235,0.01947 5.298103,-2.65523 5.276748,-5.739033 -0.02059,-2.972665 -2.515,-5.776886 -5.61741,-5.776886 z"
         id="path1660" /><g
         id="g1681"><path
           style="fill:none;stroke:#ffffff;stroke-width:1stroke-linecap:round;stroke-linejoin:round;stroke-opacity:1;stop-color:#000000"
           d="m 15.978091,18.624942 v 3.29269"
           id="path1658" /><path
           style="fill:none;stroke:#ffffff;stroke-width:1stroke-linecap:round;stroke-linejoin:round;stroke-opacity:1;stop-color:#000000"
           d="M 17.624331,20.271287 H 14.33185"
           id="path1656" /></g><g
         id="g1639"><ellipse
           style="fill:#ffffff;fill-opacity:1;stroke:none;stroke-width:1stroke-linecap:round;stroke-linejoin:round;stroke-opacity:0;stop-color:#000000"
           id="ellipse1566"
           cx="31.963892"
           cy="21.590511"
           rx="0.75"
           ry="0.75004727" /><ellipse
           style="fill:#ffffff;fill-opacity:1;stroke:none;stroke-width:1stroke-linecap:round;stroke-linejoin:round;stroke-opacity:0;stop-color:#000000"
           id="ellipse1568"
           cx="31.963892"
           cy="18.933912"
           rx="0.75"
           ry="0.75004727" /><ellipse
           style="fill:#ffffff;fill-opacity:1;stroke:none;stroke-width:1stroke-linecap:round;stroke-linejoin:round;stroke-opacity:0;stop-color:#000000"
           id="ellipse1570"
           cx="33.292107"
           cy="20.262211"
           rx="0.75"
           ry="0.75004727" /><ellipse
           style="fill:#ffffff;fill-opacity:1;stroke:none;stroke-width:1stroke-linecap:round;stroke-linejoin:round;stroke-opacity:0;stop-color:#000000"
           id="ellipse1572"
           cx="30.635677"
           cy="20.262211"
           rx="0.75"
           ry="0.75004727" /></g></g></g></svg>
